X:23006
T:Wild Mountain Thyme
T:Will you go Lassie go
T:Braes o Balquhidder
R:Reel
C:Trad.
O:Scotland
M:4/4
L:1/8
Q:1/4=100
K:G
GA|"G"B B3 "C"A3 G|("G"EG3) z2 Bd|"C"e3 e e3 d|"G"B d3 z2 Bd|
"C"e4 "G"d2 B2|("Em"AG3) z2 AB|"G"c3 B A2 G2|E G3 G3 E|
("G"D3E) "C"G G3|"G"G4 z2 Bd|"C"e4 e3 d|"G"B d3 z2 Bd|"C"e4 "G"d2 B2|("Em"AG3) z2 AB|
"Am"c3 B A2 G2|"C"E G3 G2 E2|("G"D3E) "C"G G3|"G"G6|]

